16x16/panel/network-wireless-secure-signal-excellent.svg

<svg height="16.003" width="16" xmlns="http://www.w3.org/2000/svg"><g color="#000" fill="#d3dae3"><path d="M8.031 2C4.997 2 2.266 3.077.001 4.75l8.03 8.75.97-1.069v-1.428h1.013c.02-1.635 1.342-3 2.986-3l.018.002L16 4.718C13.744 3.065 11.043 2 8.031 2zm0 1c2.37 0 4.475.82 6.375 2l-6.375 7-6.437-6.97C3.507 3.837 5.638 3 8.031 3z" style="marker:none" overflow="visible"/><path d="M8.031 4c-1.73 0-3.289.573-4.781 1.344L8.031 10.5l4.719-5.188C11.274 4.556 9.74 4 8.031 4zM13 9.003c-1.108 0-2 .911-2 2.032v.968h-1v4h6v-4h-1v-.968c0-1.12-.892-2.032-2-2.032zm0 1c.554 0 1 .443 1 1v1h-2v-1c0-.557.446-1 1-1z" style="marker:none" overflow="visible"/></g></svg>

<svg xmlns="http://www.w3.org/2000/svg" width="16" height="16" version="1.1">
 <defs>
  <style id="current-color-scheme" type="text/css">
   .ColorScheme-Text { color:#323a41; } .ColorScheme-Highlight { color:#4285f4; } .ColorScheme-NeutralText { color:#ff9800; } .ColorScheme-PositiveText { color:#4caf50; } .ColorScheme-NegativeText { color:#f44336; }
  </style>
 </defs>
 <path style="fill:currentColor" class="ColorScheme-Text" d="M 8.029,2 8.031,2.002 C 4.9969,2.002 2.2653,3.2713 0,5.0156 L 8.031,14 9,12.904 V 11 H 10.014 C 10.033,9.365 11.356,8 13,8 13.105,8 13.204,8.02 13.307,8.031 L 16,4.9844 C 13.742,3.2628 11.04,2 8.029,2 Z M 13,9 C 11.892,9 11,9.911 11,11.031 V 12 H 10 V 16 H 16 V 12 H 15 V 11.031 C 15,9.911 14.108,9 13,9 Z M 13,10 C 13.554,10 14,10.442 14,11 V 12 H 12 V 11 C 12,10.442 12.446,10 13,10 Z"/>
</svg>
